X:9
T:Catherine McEvoy's
C:Catherine McEvoy's
R:reel
D:Catherine McEvoy
N:melodic code 1151 5215
Z:Paul Stewart Cranford (P.S.C.), <http://www.cranfordpub.com>
L:1/8
Q:333
M:C|
K:G
~G3 B dgge|dGAG {A}GE D2|GFGB dgge|dBAE ~A3 B|
G2 GB dgge|dGAG {A}GE D2|[1~g3 d egge|dBAD G3 z:|[2g2 eg dege|dBAD G3 z||
|:~g3 a b2 af|g2 fg edBd|~g3 a ba{b}ae|gage ~a3 z|
[1~g3 a b2 af|g2fg eg d2|GFGB dgge|dGAD ~G3 z:|
[2 gbag egge|dB TB2 AGEG|DG ~G2 DEGe|dGAG GEDE|]
